src/assets/tokens/drusd.svg

<svg xmlns="http://www.w3.org/2000/svg" fill="none" viewBox="0 0 600 600"><path fill="#fff" d="M600 299.97a300.06 300.06 0 0 1-87.859 212.153A299.94 299.94 0 0 1 300.03 600a299.93 299.93 0 0 1-212.15-87.855A300.08 300.08 0 0 1 0 299.97a300.1 300.1 0 0 1 42.246-153.569A300 300 0 0 1 157.125 36.099c6.076-3.282 12.152-6.381 18.592-9.237A298.65 298.65 0 0 1 300.03 0a299.93 299.93 0 0 1 196.639 73.456 300.05 300.05 0 0 1 100.354 184.399c.972 6.806 1.701 13.613 2.248 20.541s.729 14.342.729 21.574"/><path fill="#000" d="M237.504 127.539v116.099H112.5V127.539zM487.5 359.725H362.496v116.098H487.5zm0-232.186H362.496L237.504 243.638H487.5zm-375 232.186v116.098h125.004V243.638z"/><g clip-path="url(#a)"><path fill="#1E1C29" d="M413.501 551.002c75.94 0 137.501-61.561 137.501-137.501S489.441 276 413.501 276 276 337.561 276 413.501s61.561 137.501 137.501 137.501"/><mask id="b" width="227" height="227" x="300" y="300" maskUnits="userSpaceOnUse" style="mask-type:luminance"><path fill="#fff" d="M526.749 300.252H300.252v226.497h226.497z"/></mask><g stroke="#fff" stroke-width="12.354" mask="url(#b)"><path d="M306.633 413.5c0-59.043 47.825-106.868 106.868-106.868S520.369 354.457 520.369 413.5s-47.825 106.868-106.868 106.868S306.633 472.543 306.633 413.5Z"/><path d="M309.822 383.9c20.1-5.795 16.42-7.174 20.666-5.795 4.247 1.38 76.983 137.129 77.43 139.073"/><path d="M330.559 379.206c2.504.515 30.585 17.825 33.671 21.786s7.295 16.693 10.662 19.239c3.367 2.547 6.454 1.698 9.54.567 3.087-1.132 13.469-14.996 16.275-16.976 2.806-1.981 6.173-.85 7.857 2.263 1.683 3.112 53.904 96.948 55.978 100.725m-62.205-102.082-7.976 86.93m24.723-69.895c3.109-2.257 3.391-1.129 5.087-3.104s2.261-6.774 3.108-9.596c.848-2.823 4.239-1.976 6.5-1.129 2.26.847 4.521 1.975 6.5 4.797 1.978 2.823 46.063 54.473 50.867 56.731 4.804 2.257 5.377 1.762 10.88 2.257"/></g></g><defs><clipPath id="a"><path fill="#fff" d="M276 276h275v275H276z"/></clipPath></defs></svg>

<svg width="600" height="600" viewBox="0 0 600 600" fill="none" xmlns="http://www.w3.org/2000/svg">
<path d="M600 299.97C600 379.543 568.396 455.857 512.141 512.123C455.886 568.39 379.587 600 300.03 600C260.633 600.008 221.619 592.253 185.218 577.179C148.817 562.105 115.742 540.006 87.8806 512.145C60.0194 484.284 37.9184 451.206 22.8397 414.8C7.76101 378.395 2.32566e-06 339.375 3.13385e-06 299.97C-0.00780861 245.908 14.5888 192.849 42.2465 146.401C69.9042 99.9535 109.595 61.843 157.124 36.0989C163.2 32.8172 169.276 29.7179 175.716 26.8617C214.746 9.08569 257.145 -0.0757432 300.03 0.000471649C372.282 0.000155716 442.107 26.0833 496.669 73.4557C551.232 120.828 586.866 186.306 597.023 257.855C597.995 264.661 598.724 271.468 599.271 278.396C599.818 285.324 600 292.738 600 299.97Z" fill="white"/>
<path d="M237.504 127.539V243.638H112.5V127.539H237.504ZM487.5 359.725H362.496V475.823H487.5V359.725V359.725ZM487.5 127.539H362.496L237.504 243.638H487.5V127.539ZM112.5 359.725V475.823H237.504V243.638L112.5 359.725Z" fill="black"/>
<g clip-path="url(#clip0_14771_222)">
<path d="M413.501 551.002C489.441 551.002 551.002 489.441 551.002 413.501C551.002 337.561 489.441 276 413.501 276C337.561 276 276 337.561 276 413.501C276 489.441 337.561 551.002 413.501 551.002Z" fill="#1E1C29"/>
<mask id="mask0_14771_222" style="mask-type:luminance" maskUnits="userSpaceOnUse" x="300" y="300" width="227" height="227">
<path d="M526.749 300.252H300.252V526.749H526.749V300.252Z" fill="white"/>
</mask>
<g mask="url(#mask0_14771_222)">
<path d="M306.633 413.5C306.633 354.457 354.458 306.632 413.501 306.632C472.544 306.632 520.369 354.457 520.369 413.5C520.369 472.543 472.544 520.368 413.501 520.368C354.458 520.368 306.633 472.543 306.633 413.5Z" stroke="white" stroke-width="12.3544"/>
<path d="M309.822 383.9C329.922 378.105 326.242 376.726 330.488 378.105C334.735 379.485 407.471 515.234 407.918 517.178" stroke="white" stroke-width="12.3544"/>
<path d="M330.559 379.206C333.063 379.721 361.144 397.031 364.23 400.992C367.316 404.953 371.525 417.685 374.892 420.231C378.259 422.778 381.346 421.929 384.432 420.798C387.519 419.666 397.901 405.802 400.707 403.822C403.513 401.841 406.88 402.972 408.564 406.085C410.247 409.197 462.468 503.033 464.542 506.81" stroke="white" stroke-width="12.3544"/>
<path d="M402.337 404.728L394.361 491.658" stroke="white" stroke-width="12.3544"/>
<path d="M419.084 421.763C422.193 419.506 422.475 420.634 424.171 418.659C425.866 416.683 426.432 411.885 427.279 409.063C428.127 406.24 431.518 407.087 433.779 407.934C436.039 408.781 438.3 409.909 440.279 412.731C442.257 415.554 486.342 467.204 491.146 469.462C495.95 471.719 496.523 471.224 502.026 471.719" stroke="white" stroke-width="12.3544"/>
</g>
</g>
<defs>
<clipPath id="clip0_14771_222">
<rect width="275" height="275" fill="white" transform="translate(276 276)"/>
</clipPath>
</defs>
</svg>
